svg/Octicons/file-pdf.svg

<svg xmlns="http://www.w3.org/2000/svg" viewBox="0 0 768 1024"><path d="m576 64h-576v896h768v-704l-192-192m-512 64h255.81c-13.188 4.094-27.28 15.03-34.625 42.875-13.25 49.41-7.03 130.75 15.625 209.34-24.12 81.22-122.62 276.66-129.28 288.28-15.625 4.875-65.34 23.625-107.53 59.812v-600.31m283.12 307.47c57.62 149.78 95 149.53 135.19 167.59-83.969 12.937-148.09 22.19-232.53 59.44-3.687 6.438 76.5-145.91 97.34-227.03m356.87 460.53h-638.16-1.844v-.375c.781.062 1.094.375 1.844.375 33.812 0 84.75-21 180.56-182.37 38.19-15.438 72.06-26.875 78.47-28.938 58.812-14.875 125-26.625 187.56-33.375 54.44 27.19 126.69 45.688 167.81 48.31 9.625.5 16.06-1.188 23.75-2v198.37m0-310.62c-23.688-14.688-54-25-89.12-25-24.25 0-50.625 1.375-78.69 4.375-26.938-13-92.56-32.719-147.19-190.22 17.09-103.62 12.719-173.56 12.719-173.56 6.781-52.938-23.344-72.844-51.625-72.844 0 0-.279-.125-.344-.125h162.25l192 192v265.37"/></svg>

<svg height="1024" width="768" xmlns="http://www.w3.org/2000/svg">
  <path d="M576 64H0v896h768V256L576 64zM64 128h255.812c-13.188 4.094-27.281 15.031-34.625 42.875-13.25 49.406-7.031 130.75 15.625 209.344C276.688 461.438 178.188 656.875 171.531 668.5c-15.625 4.875-65.344 23.625-107.531 59.812V128zM347.125 435.469c57.625 149.781 95 149.531 135.188 167.594C398.344 616 334.219 625.25 249.781 662.5 246.094 668.938 326.281 516.594 347.125 435.469zM704 896H65.844 64v-0.375c0.781 0.062 1.094 0.375 1.844 0.375 33.812 0 84.75-21 180.562-182.375 38.188-15.438 72.062-26.875 78.469-28.938 58.812-14.875 125-26.625 187.562-33.375C566.875 678.5 639.125 697 680.25 699.625c9.625 0.5 16.062-1.188 23.75-2V896zM704 585.375c-23.688-14.688-54-25-89.125-25-24.25 0-50.625 1.375-78.688 4.375-26.938-13-92.562-32.719-147.188-190.219 17.094-103.625 12.719-173.562 12.719-173.562 6.781-52.938-23.344-72.844-51.625-72.844 0 0-0.279-0.125-0.344-0.125H512l192 192V585.375z" />
</svg>
